src/assets/icons/remotes/sftp.svg

<svg width="24" height="24" viewBox="0 0 24 24" fill="currentColor" xmlns="http://www.w3.org/2000/svg">
    <path
        d="M14.5707 13.1396C14.4095 13.1396 14.3004 13.1504 14.2433 13.1659V14.1996C14.3107 14.2148 14.3941 14.2205 14.5083 14.2205C14.9289 14.2205 15.1891 14.0077 15.1891 13.6544C15.1889 13.3322 14.9706 13.1396 14.5707 13.1396Z" />
    <path
        d="M12.8056 8.43891C12.3608 7.99432 11.64 7.99432 11.1952 8.43891L6.13806 13.4962C5.69328 13.941 5.69328 14.6619 6.13806 15.1069L11.195 20.1636C11.6398 20.6084 12.3606 20.6084 12.8054 20.1636L17.8625 15.1065C18.0762 14.893 18.1961 14.6031 18.1961 14.3012C18.1961 13.9994 18.0762 13.7097 17.8625 13.4958L12.8056 8.43891ZM10.1625 13.2129H8.81716V14.0132H10.0743V14.6572H8.81716V16.0649H8.0276V12.5636H10.1625V13.2129ZM13.186 13.2285H12.2299V16.0645H11.4406V13.2285H10.4953V12.5636H13.186V13.2285ZM15.6563 14.4594C15.3859 14.7092 14.981 14.8284 14.5136 14.8284C14.4095 14.8284 14.3162 14.8235 14.2432 14.8074V16.0645H13.4592V12.6105C13.7033 12.5688 14.0465 12.5377 14.5293 12.5377C15.0174 12.5377 15.3707 12.6315 15.6044 12.8234C15.8281 12.9951 15.9732 13.2856 15.9732 13.6288C15.973 13.9766 15.864 14.2675 15.6563 14.4594Z" />
    <path
        d="M17.9467 6.55977C17.8359 6.55184 17.7341 6.49512 17.669 6.40486C16.8563 5.27765 15.5325 4.58018 14.1229 4.58018C14.0209 4.58018 13.9188 4.58384 13.8168 4.59095C13.7251 4.59746 13.6346 4.57001 13.5616 4.51411C12.7082 3.8577 11.6682 3.50195 10.5784 3.50195C8.63116 3.50195 6.90527 4.6432 6.11917 6.36583C6.06509 6.48435 5.95329 6.56607 5.824 6.58233C3.67121 6.85128 2 8.69284 2 10.9174C2 12.8886 3.31322 14.5578 5.11046 15.0998C5.00191 14.8508 4.94377 14.5808 4.94377 14.3013C4.94377 13.9423 5.03972 13.5989 5.21577 13.297C4.3329 12.8673 3.72142 11.9637 3.72142 10.9174C3.72142 9.45739 4.90921 8.2698 6.36921 8.2698C6.443 8.2698 6.51537 8.2757 6.58753 8.2818C7.00813 8.31412 7.38909 8.04131 7.49154 7.63332C7.8477 6.21459 9.11701 5.22357 10.5782 5.22357C11.4131 5.22357 12.2033 5.54598 12.803 6.13145C13.0081 6.33148 13.2988 6.41625 13.5795 6.35791C13.7582 6.32091 13.9408 6.302 14.1227 6.302C15.1446 6.302 16.0578 6.87649 16.505 7.80164C16.6619 8.12689 17.0059 8.32062 17.3653 8.28363C17.4547 8.27448 17.544 8.27021 17.631 8.27021C19.0912 8.27021 20.2788 9.458 20.2788 10.9178C20.2788 11.9641 19.6673 12.8675 18.7844 13.2974C18.9605 13.5991 19.0564 13.9425 19.0564 14.3013C19.0564 14.581 18.9981 14.8512 18.8895 15.1004C20.687 14.5584 22 12.8893 22 10.9178C22.0006 8.61478 20.2093 6.72158 17.9467 6.55977Z" />
</svg>

<svg xmlns="http://www.w3.org/2000/svg" width="24" height="24" fill="currentColor" viewBox="0 0 24 24"><path d="M14.57 13.14q-.24.001-.327.026V14.2c.068.015.151.02.265.02.42 0 .681-.212.681-.566 0-.322-.218-.514-.618-.514"/><path d="M12.806 8.439a1.14 1.14 0 0 0-1.61 0l-5.058 5.057a1.14 1.14 0 0 0 0 1.61l5.057 5.058a1.14 1.14 0 0 0 1.61 0l5.058-5.058a1.14 1.14 0 0 0 0-1.61zm-2.643 4.774H8.817v.8h1.257v.644H8.817v1.408h-.79v-3.501h2.136zm3.023.016h-.956v2.835h-.79V13.23h-.945v-.665h2.691zm2.47 1.23c-.27.25-.675.37-1.142.37-.104 0-.198-.006-.27-.022v1.257h-.785v-3.453a6.5 6.5 0 0 1 1.07-.073c.488 0 .842.094 1.075.285.224.172.37.463.37.806-.001.348-.11.639-.318.83"/><path d="M17.947 6.56a.38.38 0 0 1-.278-.155 4.4 4.4 0 0 0-3.852-1.814.38.38 0 0 1-.255-.077 4.87 4.87 0 0 0-2.984-1.012A4.9 4.9 0 0 0 6.12 6.366a.38.38 0 0 1-.295.216A4.375 4.375 0 0 0 2 10.917 4.38 4.38 0 0 0 5.11 15.1a2 2 0 0 1 .106-1.803 2.65 2.65 0 0 1-1.495-2.38A2.65 2.65 0 0 1 6.37 8.27q.11.002.219.012c.42.032.801-.24.904-.649a3.18 3.18 0 0 1 5.311-1.502.86.86 0 0 0 .776.227q.27-.056.544-.056a2.63 2.63 0 0 1 2.382 1.5c.157.325.5.519.86.482q.135-.014.266-.014a2.65 2.65 0 0 1 2.648 2.648 2.65 2.65 0 0 1-1.495 2.38 1.99 1.99 0 0 1 .106 1.802A4.375 4.375 0 0 0 22 10.918a4.374 4.374 0 0 0-4.053-4.358"/></svg>
